X: 20085
M: C
L: 1/8
K: Gm
dc |\
d2dc dgfe | .d2.c2 .B2.A2 |\
gfga gfga |
bBcB g3a |\
bagf edcB | ABcA F4 |\
f2B2 d4 | c2F2 c4 |\


